!!!OTL: Das Dollerlied
!!!ARE: Europa, Mitteleuropa, Deutschland
!!!SCT: A0374B
!!!YEM: Copyright 1995, estate of Helmut Schaffrath.
**kern
*ICvox
*Ivox
*M4/4
*k[b-]
*d:
{4b
=1
4b
4a
4g
4fn
=2
2e
4e
4fn
=3
4g
4a
4b
4g
=4
2fn
4r}
{4b
=5
4b
4a
4g
4fn
=6
2e
4e
4fn
=7
4g
4a
4b
4g
=8
2fn
4r}
{4fn
=9
4fn
4e
4fn
4g
=10
2a
4a
4fn
=11
4fn
4fn
4e
4e
=12
2d
4r}
{4a
=13
4a
4a
4a
4b
=14
2a
4fn
4fn
=15
4a
4a
4b
4g
=16
2fn
4a
4fn
=17
4fn
4d
4e
4cn
=18
2B
4r}
==
!!!AGN: Romanze, Ballade, Lied, Personenlied
!! Werlins Hs. 1646 S. 2946.
!!!ONB: ESAC (Essen Associative Code) Database: ALTDEU
!!!AMT: simple quadruple
!!!AIN: vox
!!!EED: Helmut Schaffrath
!!!EEV: 1.0
*-
